X: 5127
T: Bridgett's
R: reel
M: 4/4
K: Adorian
E2|:A2AB cBcd|e2dc B2d2|G2GA BABc|d2cB c2e2|
A2AB cBcd|e2dc B2G2|g2ag e2dB|1 e2dB A2E2:|2 e2dB A2G2||
|:A2a2 a2ba|g2ed e2dB|G2g2 g2ag|e2dB d2BG|
A2a2 a2ba|g2ed e2eg|edB2 e2dB|1 B2A2 A2G2:|2 B2A2 A2E2||

